Newaita-dark/.places-manjaro/64/folder-open.svg

<?xml version="1.0" encoding="UTF-8"?>
<svg xmlns="http://www.w3.org/2000/svg" xmlns:xlink="http://www.w3.org/1999/xlink" width="64pt" height="64pt" viewBox="0 0 64 64" version="1.1">
<defs>
<linearGradient id="linear0" gradientUnits="userSpaceOnUse" x1="254" y1="233.5" x2="254" y2="254.666672" gradientTransform="matrix(0.125012,0,0,0.125012,-0.00000763012,28.200615)">
<stop offset="0" style="stop-color:rgb(0%,0%,0%);stop-opacity:0.27451;"/>
<stop offset="1" style="stop-color:rgb(0%,0%,0%);stop-opacity:0;"/>
</linearGradient>
<radialGradient id="radial0" gradientUnits="userSpaceOnUse" cx="450.908936" cy="189.579361" fx="450.908936" fy="189.579361" r="21.166656" gradientTransform="matrix(0.000000348341,-0.156265,-0.281277,-0.000000203077,108.230425,128.513709)">
<stop offset="0" style="stop-color:rgb(0%,0%,0%);stop-opacity:0.313725;"/>
<stop offset="0.222222" style="stop-color:rgb(0%,0%,0%);stop-opacity:0.27451;"/>
<stop offset="1" style="stop-color:rgb(0%,0%,0%);stop-opacity:0;"/>
</radialGradient>
<radialGradient id="radial1" gradientUnits="userSpaceOnUse" cx="450.908936" cy="189.579361" fx="450.908936" fy="189.579361" r="21.166656" gradientTransform="matrix(-0.000000348341,0.156265,0.281277,0.000000203077,-44.724356,-13.731913)">
<stop offset="0" style="stop-color:rgb(0%,0%,0%);stop-opacity:0.313725;"/>
<stop offset="0.222222" style="stop-color:rgb(0%,0%,0%);stop-opacity:0.27451;"/>
<stop offset="1" style="stop-color:rgb(0%,0%,0%);stop-opacity:0;"/>
</radialGradient>
<radialGradient id="radial2" gradientUnits="userSpaceOnUse" cx="450.908936" cy="189.579361" fx="450.908936" fy="189.579361" r="21.166656" gradientTransform="matrix(-0.000000348341,-0.156265,0.281277,-0.000000203077,-44.724356,128.513709)">
<stop offset="0" style="stop-color:rgb(0%,0%,0%);stop-opacity:0.313725;"/>
<stop offset="0.222222" style="stop-color:rgb(0%,0%,0%);stop-opacity:0.27451;"/>
<stop offset="1" style="stop-color:rgb(0%,0%,0%);stop-opacity:0;"/>
</radialGradient>
<radialGradient id="radial3" gradientUnits="userSpaceOnUse" cx="450.908936" cy="189.579361" fx="450.908936" fy="189.579361" r="21.166656" gradientTransform="matrix(0.000000348341,0.156265,-0.281277,0.000000203077,108.230422,-13.731914)">
<stop offset="0" style="stop-color:rgb(0%,0%,0%);stop-opacity:0.313725;"/>
<stop offset="0.222222" style="stop-color:rgb(0%,0%,0%);stop-opacity:0.27451;"/>
<stop offset="1" style="stop-color:rgb(0%,0%,0%);stop-opacity:0;"/>
</radialGradient>
<linearGradient id="linear1" gradientUnits="userSpaceOnUse" x1="317.5" y1="233.499985" x2="317.5" y2="-147.500015" gradientTransform="matrix(0.125012,0,0,0.125012,-0.000000376501,28.200611)">
<stop offset="0" style="stop-color:rgb(25.882353%,25.882353%,25.882353%);stop-opacity:1;"/>
<stop offset="1" style="stop-color:rgb(38.039216%,38.039216%,38.039216%);stop-opacity:1;"/>
</linearGradient>
<linearGradient id="linear2" gradientUnits="userSpaceOnUse" x1="254" y1="233.5" x2="254" y2="-84" gradientTransform="matrix(1,0,0,1,0.00000308626,10.583336)">
<stop offset="0" style="stop-color:rgb(87.843137%,87.843137%,87.843137%);stop-opacity:1;"/>
<stop offset="1" style="stop-color:rgb(93.333333%,93.333333%,93.333333%);stop-opacity:1;"/>
</linearGradient>
<linearGradient id="linear3" gradientUnits="userSpaceOnUse" x1="254" y1="-115.750008" x2="254" y2="233.5" gradientTransform="matrix(0.125012,0,0,0.125012,-0.000000376501,28.200611)">
<stop offset="0" style="stop-color:rgb(30.196078%,71.372549%,67.45098%);stop-opacity:1;"/>
<stop offset="1" style="stop-color:rgb(14.901961%,65.098039%,60.392157%);stop-opacity:1;"/>
</linearGradient>
</defs>
<g id="surface1">
<path style=" stroke:none;fill-rule:nonzero;fill:url(#linear0);" d="M 7.9375 57.390625 L 55.566406 57.390625 L 55.566406 60.035156 L 7.9375 60.035156 Z M 7.9375 57.390625 "/>
<path style=" stroke:none;fill-rule:nonzero;fill:url(#radial0);" d="M 55.566406 57.390625 L 60.859375 57.390625 L 60.859375 54.746094 L 55.566406 54.746094 Z M 55.566406 57.390625 "/>
<path style=" stroke:none;fill-rule:nonzero;fill:url(#radial1);" d="M 7.9375 57.390625 L 2.644531 57.390625 L 2.644531 60.035156 L 7.9375 60.035156 Z M 7.9375 57.390625 "/>
<path style=" stroke:none;fill-rule:nonzero;fill:url(#radial2);" d="M 7.9375 57.390625 L 2.644531 57.390625 L 2.644531 54.746094 L 7.9375 54.746094 Z M 7.9375 57.390625 "/>
<path style=" stroke:none;fill-rule:nonzero;fill:url(#radial3);" d="M 55.566406 57.390625 L 60.859375 57.390625 L 60.859375 60.035156 L 55.566406 60.035156 Z M 55.566406 57.390625 "/>
<path style=" stroke:none;fill-rule:nonzero;fill:url(#linear1);" d="M 14.554688 9.761719 C 13.085938 9.761719 11.90625 10.941406 11.90625 12.40625 L 11.90625 15.054688 L 5.292969 15.054688 C 3.828125 15.054688 2.644531 16.234375 2.644531 17.699219 L 2.644531 38.867188 C 2.644531 40.335938 3.828125 41.515625 5.292969 41.515625 L 58.214844 41.515625 C 59.679688 41.515625 60.859375 40.335938 60.859375 38.867188 L 60.859375 17.699219 C 60.859375 17.027344 60.609375 16.414062 60.199219 15.945312 L 60.199219 12.40625 C 60.199219 10.941406 59.019531 9.761719 57.550781 9.761719 Z M 14.554688 9.761719 "/>
<path style="fill-rule:nonzero;fill:url(#linear2);stroke-width:3;stroke-linecap:round;stroke-linejoin:miter;stroke:rgb(12.941177%,12.941177%,12.941177%);stroke-opacity:1;stroke-miterlimit:4;" d="M 52.901198 -73.41977 L 455.081542 -73.41977 C 460.924734 -73.41977 465.67428 -68.670224 465.67428 -62.827032 L 465.67428 106.500548 C 465.67428 112.34374 460.924734 117.093287 455.081542 117.093287 L 52.901198 117.093287 C 47.058006 117.093287 42.339707 112.34374 42.339707 106.500548 L 42.339707 -62.827032 C 42.339707 -68.670224 47.058006 -73.41977 52.901198 -73.41977 Z M 52.901198 -73.41977 " transform="matrix(0.125012,0,0,0.125012,0,26.877566)"/>
<path style=" stroke:none;fill-rule:nonzero;fill:rgb(90.196079%,90.196079%,90.196079%);fill-opacity:0.588235;" d="M 14.554688 9.761719 C 13.085938 9.761719 11.90625 10.941406 11.90625 12.40625 L 11.90625 12.738281 C 11.90625 11.273438 13.085938 10.09375 14.554688 10.09375 L 57.550781 10.09375 C 59.019531 10.09375 60.199219 11.273438 60.199219 12.738281 L 60.199219 12.40625 C 60.199219 10.941406 59.019531 9.761719 57.550781 9.761719 Z M 14.554688 9.761719 "/>
<path style=" stroke:none;fill-rule:nonzero;fill:rgb(12.941177%,12.941177%,12.941177%);fill-opacity:1;" d="M 14.554688 9.574219 C 12.988281 9.574219 11.71875 10.839844 11.71875 12.40625 L 11.71875 14.867188 L 5.292969 14.867188 C 3.726562 14.867188 2.457031 16.132812 2.457031 17.699219 L 2.457031 38.867188 C 2.457031 40.433594 3.726562 41.703125 5.292969 41.703125 L 58.214844 41.703125 C 59.78125 41.703125 61.046875 40.433594 61.046875 38.867188 L 61.046875 17.699219 C 61.046875 17.007812 60.796875 16.371094 60.386719 15.878906 L 60.386719 12.40625 C 60.386719 10.839844 59.117188 9.574219 57.550781 9.574219 Z M 14.554688 9.949219 L 57.550781 9.949219 C 58.917969 9.949219 60.011719 11.042969 60.011719 12.40625 L 60.011719 16.019531 L 60.058594 16.070312 C 60.441406 16.503906 60.671875 17.070312 60.671875 17.699219 L 60.671875 38.867188 C 60.671875 40.234375 59.578125 41.328125 58.214844 41.328125 L 5.292969 41.328125 C 3.925781 41.328125 2.832031 40.234375 2.832031 38.867188 L 2.832031 17.699219 C 2.832031 16.335938 3.925781 15.242188 5.292969 15.242188 L 12.09375 15.242188 L 12.09375 12.40625 C 12.09375 11.042969 13.1875 9.949219 14.554688 9.949219 Z M 14.554688 9.949219 "/>
<path style=" stroke:none;fill-rule:nonzero;fill:url(#linear3);" d="M 5.292969 26.960938 C 3.828125 26.960938 2.644531 28.140625 2.644531 29.605469 L 2.644531 54.746094 C 2.644531 56.210938 3.828125 57.390625 5.292969 57.390625 L 58.214844 57.390625 C 59.679688 57.390625 60.859375 56.210938 60.859375 54.746094 L 60.859375 29.605469 L 25.136719 29.605469 C 23.671875 29.605469 22.492188 28.425781 22.492188 26.960938 Z M 5.292969 26.960938 "/>
<path style=" stroke:none;fill-rule:nonzero;fill:rgb(0%,0%,0%);fill-opacity:0.196078;" d="M 5.292969 57.390625 C 3.828125 57.390625 2.644531 56.210938 2.644531 54.746094 L 2.644531 54.414062 C 2.644531 55.878906 3.828125 57.058594 5.292969 57.058594 L 58.214844 57.058594 C 59.679688 57.058594 60.859375 55.878906 60.859375 54.414062 L 60.859375 54.746094 C 60.859375 56.210938 59.679688 57.390625 58.214844 57.390625 Z M 5.292969 57.390625 "/>
<path style=" stroke:none;fill-rule:nonzero;fill:rgb(90.196079%,90.196079%,90.196079%);fill-opacity:0.937255;" d="M 5.292969 26.960938 C 3.828125 26.960938 2.644531 28.140625 2.644531 29.605469 L 2.644531 29.9375 C 2.644531 28.472656 3.828125 27.292969 5.292969 27.292969 L 22.492188 27.292969 L 22.492188 26.960938 Z M 5.292969 26.960938 "/>
<path style=" stroke:none;fill-rule:nonzero;fill:rgb(90.196079%,90.196079%,90.196079%);fill-opacity:0.937255;" d="M 25.136719 29.9375 C 23.671875 29.9375 22.492188 28.757812 22.492188 27.292969 L 22.492188 26.960938 C 22.492188 28.425781 23.671875 29.609375 25.136719 29.605469 L 61.023438 29.605469 L 61.023438 29.9375 Z M 25.136719 29.9375 "/>
<path style=" stroke:none;fill-rule:nonzero;fill:rgb(12.941177%,12.941177%,12.941177%);fill-opacity:1;" d="M 5.292969 26.773438 C 3.726562 26.773438 2.457031 28.039062 2.457031 29.605469 L 2.457031 54.746094 C 2.457031 56.3125 3.726562 57.578125 5.292969 57.578125 L 58.214844 57.578125 C 59.78125 57.578125 61.046875 56.3125 61.046875 54.746094 L 61.046875 29.417969 L 25.136719 29.417969 C 23.773438 29.417969 22.679688 28.324219 22.679688 26.960938 L 22.679688 26.773438 Z M 5.292969 27.148438 L 22.3125 27.148438 C 22.410156 28.625 23.632812 29.792969 25.136719 29.792969 L 60.671875 29.792969 L 60.671875 54.746094 C 60.671875 56.109375 59.578125 57.203125 58.214844 57.203125 L 5.292969 57.203125 C 3.925781 57.203125 2.832031 56.109375 2.832031 54.746094 L 2.832031 29.605469 C 2.832031 28.242188 3.925781 27.148438 5.292969 27.148438 Z M 5.292969 27.148438 "/>
</g>
</svg>

<svg xmlns="http://www.w3.org/2000/svg" width="64pt" height="64pt" viewBox="0 0 64 64"><defs><linearGradient id="a" gradientUnits="userSpaceOnUse" x1="254" y1="233.5" x2="254" y2="254.667" gradientTransform="translate(0 28.2) scale(.12501)"><stop offset="0" stop-opacity=".275"/><stop offset="1" stop-opacity="0"/></linearGradient><radialGradient id="b" gradientUnits="userSpaceOnUse" cx="450.909" cy="189.579" fx="450.909" fy="189.579" r="21.167" gradientTransform="matrix(0 -.15626 -.28128 0 108.23 128.514)"><stop offset="0" stop-opacity=".314"/><stop offset=".222" stop-opacity=".275"/><stop offset="1" stop-opacity="0"/></radialGradient><radialGradient id="c" gradientUnits="userSpaceOnUse" cx="450.909" cy="189.579" fx="450.909" fy="189.579" r="21.167" gradientTransform="matrix(0 .15626 .28128 0 -44.724 -13.732)"><stop offset="0" stop-opacity=".314"/><stop offset=".222" stop-opacity=".275"/><stop offset="1" stop-opacity="0"/></radialGradient><radialGradient id="d" gradientUnits="userSpaceOnUse" cx="450.909" cy="189.579" fx="450.909" fy="189.579" r="21.167" gradientTransform="matrix(0 -.15626 .28128 0 -44.724 128.514)"><stop offset="0" stop-opacity=".314"/><stop offset=".222" stop-opacity=".275"/><stop offset="1" stop-opacity="0"/></radialGradient><radialGradient id="e" gradientUnits="userSpaceOnUse" cx="450.909" cy="189.579" fx="450.909" fy="189.579" r="21.167" gradientTransform="matrix(0 .15626 -.28128 0 108.23 -13.732)"><stop offset="0" stop-opacity=".314"/><stop offset=".222" stop-opacity=".275"/><stop offset="1" stop-opacity="0"/></radialGradient><linearGradient id="f" gradientUnits="userSpaceOnUse" x1="317.5" y1="233.5" x2="317.5" y2="-147.5" gradientTransform="translate(0 28.2) scale(.12501)"><stop offset="0" stop-color="#424242"/><stop offset="1" stop-color="#616161"/></linearGradient><linearGradient id="g" gradientUnits="userSpaceOnUse" x1="254" y1="233.5" x2="254" y2="-84" gradientTransform="translate(0 10.583)"><stop offset="0" stop-color="#e0e0e0"/><stop offset="1" stop-color="#eee"/></linearGradient><linearGradient id="h" gradientUnits="userSpaceOnUse" x1="254" y1="-115.75" x2="254" y2="233.5" gradientTransform="translate(0 28.2) scale(.12501)"><stop offset="0" stop-color="#4db6ac"/><stop offset="1" stop-color="#26a69a"/></linearGradient></defs><path d="M7.938 57.39h47.628v2.645H7.937zm0 0" fill="url(#a)"/><path d="M55.566 57.39h5.293v-2.644h-5.293zm0 0" fill="url(#b)"/><path d="M7.938 57.39H2.644v2.645h5.292zm0 0" fill="url(#c)"/><path d="M7.938 57.39H2.644v-2.644h5.292zm0 0" fill="url(#d)"/><path d="M55.566 57.39h5.293v2.645h-5.293zm0 0" fill="url(#e)"/><path d="M14.555 9.762a2.64 2.64 0 0 0-2.649 2.644v2.649H5.293a2.642 2.642 0 0 0-2.648 2.644v21.168a2.643 2.643 0 0 0 2.648 2.649h52.922a2.64 2.64 0 0 0 2.644-2.649V17.7c0-.672-.25-1.285-.66-1.754v-3.539a2.64 2.64 0 0 0-2.648-2.644zm0 0" fill="url(#f)"/><path d="M52.901-73.42h402.18c5.844 0 10.593 4.75 10.593 10.593v169.328c0 5.843-4.75 10.592-10.592 10.592H52.902c-5.844 0-10.562-4.75-10.562-10.592V-62.827c0-5.843 4.718-10.593 10.561-10.593zm0 0" transform="translate(0 26.878) scale(.12501)" fill="url(#g)" stroke-width="3" stroke-linecap="round" stroke="#212121"/><path d="M14.555 9.762a2.64 2.64 0 0 0-2.649 2.644v.332a2.64 2.64 0 0 1 2.649-2.644H57.55a2.64 2.64 0 0 1 2.648 2.644v-.332a2.64 2.64 0 0 0-2.648-2.644zm0 0" fill="#e6e6e6" fill-opacity=".588"/><path d="M14.555 9.574a2.832 2.832 0 0 0-2.836 2.832v2.461H5.293A2.832 2.832 0 0 0 2.457 17.7v21.168a2.836 2.836 0 0 0 2.836 2.836h52.922a2.832 2.832 0 0 0 2.832-2.836V17.7a2.84 2.84 0 0 0-.66-1.82v-3.473a2.832 2.832 0 0 0-2.836-2.832zm0 .375H57.55a2.45 2.45 0 0 1 2.46 2.457v3.614l.048.05c.382.434.613 1 .613 1.63v21.167a2.45 2.45 0 0 1-2.457 2.461H5.293a2.45 2.45 0 0 1-2.461-2.46V17.698a2.45 2.45 0 0 1 2.461-2.457h6.8v-2.836a2.45 2.45 0 0 1 2.462-2.457zm0 0" fill="#212121"/><path d="M5.293 26.96a2.642 2.642 0 0 0-2.648 2.645v25.141a2.642 2.642 0 0 0 2.648 2.645h52.922a2.639 2.639 0 0 0 2.644-2.645v-25.14H25.137a2.639 2.639 0 0 1-2.645-2.645zm0 0" fill="url(#h)"/><path d="M5.293 57.39a2.642 2.642 0 0 1-2.648-2.644v-.332a2.642 2.642 0 0 0 2.648 2.645h52.922a2.639 2.639 0 0 0 2.644-2.645v.332a2.639 2.639 0 0 1-2.644 2.645zm0 0" fill-opacity=".196"/><path d="M5.293 26.96a2.642 2.642 0 0 0-2.648 2.645v.332a2.642 2.642 0 0 1 2.648-2.644h17.2v-.332zm0 0" fill="#e6e6e6" fill-opacity=".937"/><path d="M25.137 29.938a2.639 2.639 0 0 1-2.645-2.645v-.332a2.637 2.637 0 0 0 2.645 2.644h35.886v.332zm0 0" fill="#e6e6e6" fill-opacity=".937"/><path d="M5.293 26.773a2.832 2.832 0 0 0-2.836 2.832v25.141a2.832 2.832 0 0 0 2.836 2.832h52.922a2.83 2.83 0 0 0 2.832-2.832V29.418h-35.91a2.449 2.449 0 0 1-2.457-2.457v-.188zm0 .375h17.02a2.83 2.83 0 0 0 2.824 2.645h35.535v24.953a2.449 2.449 0 0 1-2.457 2.457H5.293a2.45 2.45 0 0 1-2.461-2.457v-25.14a2.45 2.45 0 0 1 2.461-2.458zm0 0" fill="#212121"/></svg>
